X:339
T:Old Joe Clark
C:Sam Bush
N:Transcribed by John Strong 4/99
R:bluegrass
L:1/8
Q:1/4=206
M:4/4
K:C
"A"e^f ef gb (3fgf | e^f ed [e^c][ec] [ec]d | e^c e^f ge fe | "E"[ee]e e^f e2 ^cd | 
"A"e^f ef gb (3fgf | e^f ed ^cB Ac | (3B^cB Ac "E"BA ^GB | "A"A2 ^FA [e2A2A2] ^ce | 
e2 e2 e^f gf | e^f ed ^cB AB | ^cd e^f ge fe | {^c}"E"ee e^f ef e^g | "A"a^g bg a^f ea | 
^f^g af ec ^ca | ^cB Ac "E"BA ^GB | "A"A2 [eAA][eAA] [e2A2A2] ^FA | [eAA][eAA] [eAA][eAA] [eB][eB] (3B^cd | 
e^f ed ^cB A^F | E^F AB ^cB AF | "E"E^F ^GA BA GB | "A"AB ^cd ea e^g | a^g bg a^f ea | 
e^g a^f "E"ed ^cB | "A"A2 [eA][eB] [e2A2] [A^F]A | [e2A2] [eA][eA] [eA]B ^cd | 
e^c dB cA B^G | AB ^cA (3B=cB A^c | "E"BA ^G^F EF GB | "A"A2 [e2A2A2] AA AB | 
ed z2 [eB]^c [ec]A | B^c Ac "E"BA ^GB | "A"A8 | 


